public/svgs/thin/file-powerpoint.svg

<svg xmlns="http://www.w3.org/2000/svg" viewBox="0 0 384 512"><!-- Font Awesome Pro 6.0.0-alpha2 by @fontawesome - https://fontawesome.com License - https://fontawesome.com/license (Commercial License) --><path d="M374.629 150.625L233.371 9.375C227.371 3.371 219.23 0 210.746 0H64C28.652 0 0 28.652 0 64V448C0 483.344 28.652 512 64 512H320C355.348 512 384 483.344 384 448V173.254C384 164.766 380.629 156.629 374.629 150.625ZM224 22.629L361.375 160H248C234.781 160 224 149.234 224 136V22.629ZM368 448C368 474.469 346.469 496 320 496H64C37.531 496 16 474.469 16 448V64C16 37.531 37.531 16 64 16H208V136C208 158.062 225.938 176 248 176H368V448ZM120 224C115.578 224 112 227.594 112 232V440C112 444.406 115.578 448 120 448S128 444.406 128 440V368H200C239.703 368 272 335.688 272 296S239.703 224 200 224H120ZM256 296C256 326.875 230.875 352 200 352H128V240H200C230.875 240 256 265.125 256 296Z"/></svg>

<svg xmlns="http://www.w3.org/2000/svg" viewBox="0 0 384 512"><!--! Font Awesome Pro 6.5.1 by @fontawesome - https://fontawesome.com License - https://fontawesome.com/license (Commercial License) Copyright 2023 Fonticons, Inc. --><path d="M64 496c-26.5 0-48-21.5-48-48V64c0-26.5 21.5-48 48-48H204.1c1.3 0 2.6 .1 3.9 .2V136c0 22.1 17.9 40 40 40H367.8c.2 1.3 .2 2.6 .2 3.9V448c0 26.5-21.5 48-48 48H64zM358.6 157.3c.9 .9 1.7 1.8 2.4 2.7H248c-13.3 0-24-10.7-24-24V22.9c1 .8 1.9 1.6 2.7 2.4L358.6 157.3zM64 0C28.7 0 0 28.7 0 64V448c0 35.3 28.7 64 64 64H320c35.3 0 64-28.7 64-64V179.9c0-12.7-5.1-24.9-14.1-33.9L238.1 14.1c-9-9-21.2-14.1-33.9-14.1H64zm56 224c-4.4 0-8 3.6-8 8V360v80c0 4.4 3.6 8 8 8s8-3.6 8-8V368h72c39.8 0 72-32.2 72-72s-32.2-72-72-72H120zm80 128H128V240h72c30.9 0 56 25.1 56 56s-25.1 56-56 56z"/></svg>
